images/usecases/scada/flow-regulation.svg

<svg width="337" height="291" viewBox="0 0 337 291" fill="none" xmlns="http://www.w3.org/2000/svg">
<rect x="177" y="38.5" width="160" height="160" rx="40" fill="#E4EFFD"/>
<rect x="0.75" y="1.25" width="158.5" height="158.5" rx="39.25" fill="#F4F8FE" stroke="#3E9AF8" stroke-width="1.5"/>
<rect width="120" height="120" transform="translate(20 20.5)" fill="#F4F8FE"/>
<path d="M80 80.5H111.8" stroke="black" stroke-opacity="0.87" stroke-width="1.2"/>
<path d="M79.9992 81.0996L114.799 20.4996H45.1992L79.9992 81.0996Z" fill="white"/>
<path d="M46.2357 21.0996L79.9992 79.8948L113.763 21.0996H46.2357Z" stroke="black" stroke-opacity="0.87" stroke-width="1.2"/>
<path d="M79.9992 79.9004L114.799 140.5H45.1992L79.9992 79.9004Z" fill="white"/>
<path d="M46.2357 139.9L79.9992 81.1052L113.763 139.9H46.2357Z" stroke="black" stroke-opacity="0.87" stroke-width="1.2"/>
<rect x="112.12" y="52.4105" width="27.7014" height="56.6028" stroke="black" stroke-opacity="0.87" stroke-width="1.2"/>
<rect x="113.75" y="131.25" width="158.5" height="158.5" rx="39.25" fill="#F4F8FE" stroke="#3E9AF8" stroke-width="1.5"/>
<rect width="120" height="120" transform="translate(133 150.688)" fill="#F4F8FE"/>
<path d="M193 210.688V178.887" stroke="black" stroke-opacity="0.87" stroke-width="1.2"/>
<path d="M193.602 210.688L133.002 175.888V245.488L193.602 210.688Z" fill="white"/>
<path d="M133.602 244.452L192.397 210.688L133.602 176.925V244.452Z" stroke="black" stroke-opacity="0.87" stroke-width="1.2"/>
<path d="M192.398 210.688L252.998 175.888V245.488L192.398 210.688Z" fill="white"/>
<path d="M252.398 244.452L193.603 210.688L252.398 176.925V244.452Z" stroke="black" stroke-opacity="0.87" stroke-width="1.2"/>
<rect x="164.799" y="178.888" width="27.6" height="56.4" transform="rotate(-90 164.799 178.888)" stroke="black" stroke-opacity="0.87" stroke-width="1.2"/>
</svg>

<svg width="337" height="291" fill="none" xmlns="http://www.w3.org/2000/svg"><rect x="177" y="38.5" width="160" height="160" rx="40" fill="#E4EFFD"/><rect x=".75" y="1.25" width="158.5" height="158.5" rx="39.25" fill="#F4F8FE" stroke="#3E9AF8" stroke-width="1.5"/><path fill="#F4F8FE" d="M20 20.5h120v120H20z"/><path d="M80 80.5h31.8" stroke="#000" stroke-opacity=".87" stroke-width="1.2"/><path d="m80 81.1 34.799-60.6h-69.6L80 81.1Z" fill="#fff"/><path d="m46.236 21.1 33.763 58.795L113.763 21.1H46.236Z" stroke="#000" stroke-opacity=".87" stroke-width="1.2"/><path d="m80 79.9 34.799 60.6h-69.6L80 79.9Z" fill="#fff"/><path d="m46.236 139.9 33.763-58.795 33.764 58.795H46.236ZM112.12 52.41h27.701v56.603H112.12z" stroke="#000" stroke-opacity=".87" stroke-width="1.2"/><rect x="113.75" y="131.25" width="158.5" height="158.5" rx="39.25" fill="#F4F8FE" stroke="#3E9AF8" stroke-width="1.5"/><path fill="#F4F8FE" d="M133 150.688h120v120H133z"/><path d="M193 210.688v-31.801" stroke="#000" stroke-opacity=".87" stroke-width="1.2"/><path d="m193.602 210.688-60.6-34.8v69.6l60.6-34.8Z" fill="#fff"/><path d="m133.602 244.452 58.795-33.764-58.795-33.763v67.527Z" stroke="#000" stroke-opacity=".87" stroke-width="1.2"/><path d="m192.398 210.688 60.6-34.8v69.6l-60.6-34.8Z" fill="#fff"/><path d="m252.398 244.452-58.795-33.764 58.795-33.763v67.527ZM164.799 178.888v-27.6h56.4v27.6z" stroke="#000" stroke-opacity=".87" stroke-width="1.2"/></svg>
